!!!SOCIAL_FUNCTION:	hand game songs
!!!PDT:	1922
!!!OTL: No_99_Hand_Game_Song_(f).krn
!!!REG: Southwest
!!!LANG: Non-Tone
!!!LING_GROUP: Uto-Aztecan
**kern
*staff1
=1-
*clefF4
*k[b-e-a-]
*M3/4
8.e-\L
16f\Jk
[4e-\
8.e-\L]
16B-\Jk
=2||
*M2/4
12B-\L
12G\
12F\J
8.F\L
16E-\Jk
=3
2E-\
=4
16C/LK
[8.C/J
4C/]
=5
8.E-\L
16E-\Jk
8.F\L
16E-\Jk
=6
8.F\L
16G\Jk
12G\L
12F\
12E-\J
=7||
*M3/4
8.E-\L
16E-\Jk
8.E-\L
16E-\Jk
8.E-\L
16E-\Jk
=8||
*M2/4
8.B-\L
16B-\Jk
12c\L
12B-\
12G\J
=9
8.G\L
16F\Jk
4E-\
=10
8A-\L
16B-\L
16A-\JJ
16B-\LL
16A-\J
8E-\J
=11||
*M3/4
4E-\
16F\LK
8.E-\J
12F\L
12E-\
12F\J
=12||
*M2/4
8.E-\L
16F\Jk
8E-\L
16F\L
16E-\JJ
=13||
*M3/4
12F\L
12E-\
12F\J
16E-\LK
8.F\J
4E-\
=14||
*M2/4
12F\L
12E-\
12F\J
4E-\
=15
4E-\
4E-\
=16
2E-\
=17||
*M3/4
8G\L
8F\J
8G\
8r
8E-\L
16G\L
16E-\JJ
=18
4G\
8G\
8r
8.G\L
16G\Jk
=19||
*M2/4
2E-\
=20
8G\L
8E-\J
8.G\L
16E-\Jk
=21
4E-\
4E-\
=22
2E-\
=23
2E-\
==
*-
